X: 16
T:Y Grysial Grwnd
M:3/4
L:1/8
Q:180
C:Trad
S:Blodau'r Grug Collection Vol. 3
A:Wales
Z:brian_martin12345@yahoo.com
K:A
E2|A2A2A2|A2cB AB|c2c2c>d|c4B2|c3de2|e2d2c2|B>cA2G2|A4:||
E2|AB cB AG|F2F2F2|Bc dc BA|A2G2E2|AB cB AG|F2G2A2|G>FE2^D2|E4E2|
AB cB AG|F2F2F2|Bc dc BA|G2E2E2|c3d e>f|e2d2c2|B>c A2G2|A4||

